!!!COM:	Bach, Johann Sebastian
!!!OMV:	Sei gegr&uuml;&szlig;et, Jesu g&uuml;tig
!!!OTL:	Sei gegr&uuml;&szlig;et, Jesu g&uuml;tig
**kern	**fb	**kern	**kern	**kern	**kern
*part5	*part5	*part4	*part3	*part2	*part1
*staff5	*	*staff4	*staff3	*staff2	*staff1
*I"Continuo	*	*I"Voice	*I"Voice	*I"Voice	*I"Voice
*I'Cont.	*	*I'V	*I'V	*I'V	*I'V
*clefF4	*	*clefF4	*clefGv2	*clefG2	*clefG2
*Trd0c0	*	*	*	*	*
*k[b-e-]	*	*k[b-e-]	*k[b-e-]	*k[b-e-]	*k[b-e-]
*M4/4	*	*M4/4	*M4/4	*M4/4	*M4/4
=	=	=	=	=	=
4G	.	4G	4B-	4d	4g
4F#X	6	4F#X	[4A	4d	4a
4.G	9	4.G	8A]	4d	4b-
.	.	.	16GLL	.	.
.	.	.	16F#XJJ	.	.
.	8	.	4G	4d	4b-
8Fn	.	8Fn	.	.	.
=3	=3	=3	=3	=3	=3
4E-	6	4E-	8GL	8gL	4cc
.	.	.	8A	8f#XJ	.
8DL	6 4	8DL	8B-	4g	4b-
8CJ	.	8CJ	8GJ	.	.
4D	4	4D	4d	4g	4a
4D;	#	4D;	4d;	4f#;	4a;
=4	=4	=4	=4	=4	=4
4G	.	4G	4d	4g	4b-
4A	6	4A	[4c	4fn	4cc
4.B-	9	4.B-	8c]	4f	4dd
.	.	.	16B-LL	.	.
.	.	.	16AJJ	.	.
.	8	.	4B-	4f	4dd
8A	.	8A	.	.	.
=5	=5	=5	=5	=5	=5
4G	6	4G	4B-	8e-L	4ee-
.	.	.	.	8fJ	.
4E-	7 5	4E-	4B-	4g	8ddL
.	6	.	.	.	8ccJ
4F	4	4F	4B-	2f	2cc
4FF	3	4FF	4A	.	.
=6	=6	=6	=6	=6	=6
2BB-;	.	2BB-;	2d;	2f;	2b-;
4B-	.	4B-	4B-	4f	4dd
4A	6	4A	[4c	4f	4cc
=7	=7	=7	=7	=7	=7
!!linebreak:original
8B-L	9	8B-L	4c]	4f	4dd
8A	.	8A	.	.	.
8G	3	8G	4B-	4b-	4dd
8FJ	.	8FJ	.	.	.
8E-L	6 5	8E-L	8gL	8b-L	4cc
8C	6	8C	8e-J	8aJ	.
8D	6	8D	4f	4b-	4b-
8BB-J	.	8BB-J	.	.	.
=8	=8	=8	=8	=8	=8
4F	4	4F	4f	4b-	4cc
4FF;	3	4FF;	4f;	4a;	4cc;
4F	.	4F	4f	4a	4cc
4BBn	6 5	4BBn	4f	4g	4dd
=9	=9	=9	=9	=9	=9
8CL	.	8CL	8e-L	4g	4ee-
8D	.	8D	8dJ	.	.
8E-	6	8E-	4c	4g	4ee-
8FJ	.	8FJ	.	.	.
4G	8 n	4G	4Bn	8gL	4dd
.	7	.	.	8fJ	.
8A-XL	.	8A-XL	4c	4e-	8ccL
8GJ	.	8GJ	.	.	8ddJ
=10	=10	=10	=10	=10	=10
4F	6 5 -	4F	4c	4a-X	2dd
4G	n	4G	4Bn	8gL	.
.	.	.	.	8fJ	.
2C;	.	2C;	2G;	2e-;	2cc;
=11	=11	=11	=11	=11	=11
4c	.	4c	4c	4e-	4g
4F#X	6 5	4F#X	4c	4d	4an
4G	5	4G	4B-	8dL	4b-
.	6	.	.	8e-J	.
4D	6	4D	[4B-	4f	4b-
=12	=12	=12	=12	=12	=12
4E-	6 5	4E-	4B-]	4g	4cc
4F	.	4F	4A	4f	4cc
2BB-;	.	2BB-;	4B-	4f	4dd
.	.	.	4B-;	4f;	4dd;
=13	=13	=13	=13	=13	=13
!!pagebreak:original
4FF#X	6	4FF#X	8AL	4d	4dd
.	.	.	8c	.	.
4GG	.	4GG	8c	4g	4dd
.	.	.	[8B-J	.	.
4C	.	4C	8B-]	8g	4ee-
.	.	.	16A-XLL	4cc	.
.	.	.	16GJJ	.	.
4D	nr6	4D	4F	.	4dd
.	.	.	.	8bn	.
=14	=14	=14	=14	=14	=14
4E-	6	4E-	8GL	8ccL	4cc
.	.	.	8AnJ	8f#XJ	.
8DL	6 4	8DL	8B-L	4g	8b-L
8CJ	6 5	8CJ	8e-J	.	8aJ
4D	4	4D	4.d	4g	2a
4DD	#	4DD	.	4f#	.
.	.	.	8c	.	.
=15	=15	=15	=15	=15	=15
1GG;	.	1GG;	1Bn;	1d;	1g;
=||	=||	=||	=||	=||	=||
*-	*-	*-	*-	*-	*-
!!!system-decoration: s1,s2,s3,s4,s5
